styles/2/Numix-Circle/48x48/apps/gnome-commander.svg

<?xml version="1.0" encoding="UTF-8" standalone="no"?>
<svg
   xmlns:dc="http://purl.org/dc/elements/1.1/"
   xmlns:cc="http://creativecommons.org/ns#"
   xmlns:rdf="http://www.w3.org/1999/02/22-rdf-syntax-ns#"
   xmlns:svg="http://www.w3.org/2000/svg"
   xmlns="http://www.w3.org/2000/svg"
   xmlns:sodipodi="http://sodipodi.sourceforge.net/DTD/sodipodi-0.dtd"
   xmlns:inkscape="http://www.inkscape.org/namespaces/inkscape"
   viewBox="0 0 48 48"
   id="svg2"
   version="1.1"
   inkscape:version="0.91 r"
   width="100%"
   height="100%"
   sodipodi:docname="gnome-commander.svg">
  <metadata
     id="metadata69">
    <rdf:RDF>
      <cc:Work
         rdf:about="">
        <dc:format>image/svg+xml</dc:format>
        <dc:type
           rdf:resource="http://purl.org/dc/dcmitype/StillImage" />
      </cc:Work>
    </rdf:RDF>
  </metadata>
  <sodipodi:namedview
     pagecolor="#ffffff"
     bordercolor="#666666"
     borderopacity="1"
     objecttolerance="10"
     gridtolerance="10"
     guidetolerance="10"
     inkscape:pageopacity="0"
     inkscape:pageshadow="2"
     inkscape:window-width="1280"
     inkscape:window-height="998"
     id="namedview67"
     showgrid="true"
     showguides="true"
     inkscape:guide-bbox="true"
     inkscape:zoom="8"
     inkscape:cx="26.996633"
     inkscape:cy="18.566761"
     inkscape:window-x="0"
     inkscape:window-y="0"
     inkscape:window-maximized="1"
     inkscape:current-layer="svg2">
    <inkscape:grid
       type="xygrid"
       id="grid3046" />
  </sodipodi:namedview>
  <defs
     id="defs4">
    <linearGradient
       id="linearGradient3764"
       x1="1"
       x2="47"
       gradientUnits="userSpaceOnUse"
       gradientTransform="matrix(0,-1,1,0,-1.5e-6,47.999998)">
      <stop
         stop-color="#428ac2"
         stop-opacity="1"
         id="stop7" />
      <stop
         offset="1"
         stop-color="#5295c7"
         stop-opacity="1"
         id="stop9" />
    </linearGradient>
  </defs>
  <g
     id="g21">
    <path
       d="m 36.31 5 c 5.859 4.062 9.688 10.831 9.688 18.5 c 0 12.426 -10.07 22.5 -22.5 22.5 c -7.669 0 -14.438 -3.828 -18.5 -9.688 c 1.037 1.822 2.306 3.499 3.781 4.969 c 4.085 3.712 9.514 5.969 15.469 5.969 c 12.703 0 23 -10.298 23 -23 c 0 -5.954 -2.256 -11.384 -5.969 -15.469 c -1.469 -1.475 -3.147 -2.744 -4.969 -3.781 z m 4.969 3.781 c 3.854 4.113 6.219 9.637 6.219 15.719 c 0 12.703 -10.297 23 -23 23 c -6.081 0 -11.606 -2.364 -15.719 -6.219 c 4.16 4.144 9.883 6.719 16.219 6.719 c 12.703 0 23 -10.298 23 -23 c 0 -6.335 -2.575 -12.06 -6.719 -16.219 z"
       opacity="0.05"
       id="path23" />
    <path
       d="m 41.28 8.781 c 3.712 4.085 5.969 9.514 5.969 15.469 c 0 12.703 -10.297 23 -23 23 c -5.954 0 -11.384 -2.256 -15.469 -5.969 c 4.113 3.854 9.637 6.219 15.719 6.219 c 12.703 0 23 -10.298 23 -23 c 0 -6.081 -2.364 -11.606 -6.219 -15.719 z"
       opacity="0.1"
       id="path25" />
    <path
       d="m 31.25 2.375 c 8.615 3.154 14.75 11.417 14.75 21.13 c 0 12.426 -10.07 22.5 -22.5 22.5 c -9.708 0 -17.971 -6.135 -21.12 -14.75 a 23 23 0 0 0 44.875 -7 a 23 23 0 0 0 -16 -21.875 z"
       opacity="0.2"
       id="path27" />
  </g>
  <g
     id="g29">
    <path
       d="m 24 1 c 12.703 0 23 10.297 23 23 c 0 12.703 -10.297 23 -23 23 -12.703 0 -23 -10.297 -23 -23 0 -12.703 10.297 -23 23 -23 z"
       fill="url(#linearGradient3764)"
       fill-opacity="1"
       id="path31" />
  </g>
  <path
     style="fill:#000000;fill-opacity:1;fill-rule:nonzero;stroke:none;opacity:0.1"
     d="M 15.75 15 C 15.359 15 15 15.421843 15 15.875 L 15 17 L 13.90625 17 L 13.8125 17 C 13.371501 17.04301 12.997 17.418726 13 17.84375 L 13 34.125 C 13 34.578026 13.434251 35 13.90625 35 L 36.09375 35 C 36.562749 35 37 34.578026 37 34.125 L 37 19.90625 C 37 19.457227 36.561749 19 36.09375 19 L 35 19 L 35 15.875 C 35 15.420825 34.645 15 34.25 15 L 15.75 15 z "
     id="path3060" />
  <g
     id="g33" />
  <path
     style="fill:#b29c9c;fill-opacity:1;fill-rule:nonzero;stroke:none"
     inkscape:connector-curvature="0"
     id="path57"
     d="m 14,20 0,-5.132383 C 14,14.41446 14.359,14 14.75,14 l 18.5,0 C 33.645,14 34,14.413442 34,14.867617 L 34,20 m -20,0" />
  <path
     style="fill:#ecedf1;fill-opacity:1;fill-rule:nonzero;stroke:none"
     inkscape:connector-curvature="0"
     id="path59"
     d="M 12.812999,16 C 12.372,16.043007 11.997,16.434024 12,16.859048 l 0,16.277904 C 12,33.589978 12.43,34 12.901999,34 l 22.199984,0 c 0.468999,0 0.897999,-0.410022 0.897999,-0.863048 l 0,-14.242792 C 35.999982,18.445137 35.569982,18 35.101983,18 L 26,18 26,16.875049 C 26,16.426024 25.54299,16 25.07499,16 l -12.175991,0 c -0.027,0 -0.059,0 -0.09,0"
     sodipodi:nodetypes="ccsssssscsssc" />
  <path
     style="fill:#b29c9c;fill-opacity:1;fill-rule:nonzero;stroke:none"
     inkscape:connector-curvature="0"
     id="path61"
     d="m 30,31.98 0,-12 -12,0 0,10.57 1.512,1.449 m 9.488,-1 -2,0 0,-2 -6,0 0,2 -1,0 -1,-1 0,-9 1,0 0,7 8,0 0,-7 1,0 m -5,10 -2,0 0,-1 2,0 m 3,-4 -6,0 0,-1 6,0 m 0,-2 -6,0 0,-1 6,0 m 0,1" />
  <g
     id="g63">
    <path
       d="m 40.03 7.531 c 3.712 4.084 5.969 9.514 5.969 15.469 0 12.703 -10.297 23 -23 23 c -5.954 0 -11.384 -2.256 -15.469 -5.969 4.178 4.291 10.01 6.969 16.469 6.969 c 12.703 0 23 -10.298 23 -23 0 -6.462 -2.677 -12.291 -6.969 -16.469 z"
       opacity="0.1"
       id="path65" />
  </g>
</svg>

<svg xmlns="http://www.w3.org/2000/svg" viewBox="0 0 48 48">
 <defs>
  <linearGradient id="linearGradient3764" x1="1" x2="47" gradientUnits="userSpaceOnUse" gradientTransform="matrix(0,-1,1,0,-1.5e-6,47.999998)">
   <stop style="stop-color:#428ac2;stop-opacity:1"/>
   <stop offset="1" style="stop-color:#5295c7;stop-opacity:1"/>
  </linearGradient>
 </defs>
 <g>
  <path d="m 36.31 5 c 5.859 4.062 9.688 10.831 9.688 18.5 c 0 12.426 -10.07 22.5 -22.5 22.5 c -7.669 0 -14.438 -3.828 -18.5 -9.688 c 1.037 1.822 2.306 3.499 3.781 4.969 c 4.085 3.712 9.514 5.969 15.469 5.969 c 12.703 0 23 -10.298 23 -23 c 0 -5.954 -2.256 -11.384 -5.969 -15.469 c -1.469 -1.475 -3.147 -2.744 -4.969 -3.781 z m 4.969 3.781 c 3.854 4.113 6.219 9.637 6.219 15.719 c 0 12.703 -10.297 23 -23 23 c -6.081 0 -11.606 -2.364 -15.719 -6.219 c 4.16 4.144 9.883 6.719 16.219 6.719 c 12.703 0 23 -10.298 23 -23 c 0 -6.335 -2.575 -12.06 -6.719 -16.219 z" style="opacity:0.05"/>
  <path d="m 41.28 8.781 c 3.712 4.085 5.969 9.514 5.969 15.469 c 0 12.703 -10.297 23 -23 23 c -5.954 0 -11.384 -2.256 -15.469 -5.969 c 4.113 3.854 9.637 6.219 15.719 6.219 c 12.703 0 23 -10.298 23 -23 c 0 -6.081 -2.364 -11.606 -6.219 -15.719 z" style="opacity:0.1"/>
  <path d="m 31.25 2.375 c 8.615 3.154 14.75 11.417 14.75 21.13 c 0 12.426 -10.07 22.5 -22.5 22.5 c -9.708 0 -17.971 -6.135 -21.12 -14.75 a 23 23 0 0 0 44.875 -7 a 23 23 0 0 0 -16 -21.875 z" style="opacity:0.2"/>
 </g>
 <g>
  <path d="m 24 1 c 12.703 0 23 10.297 23 23 c 0 12.703 -10.297 23 -23 23 -12.703 0 -23 -10.297 -23 -23 0 -12.703 10.297 -23 23 -23 z" style="fill:url(#linearGradient3764);fill-opacity:1"/>
 </g>
 <path d="m 15.75 15 c -0.391 0 -0.75 0.422 -0.75 0.875 l 0 1.125 l -1.094 0 l -0.094 0 c -0.441 0.043 -0.816 0.419 -0.813 0.844 l 0 16.281 c 0 0.453 0.434 0.875 0.906 0.875 l 22.19 0 c 0.469 0 0.906 -0.422 0.906 -0.875 l 0 -14.219 c 0 -0.449 -0.438 -0.906 -0.906 -0.906 l -1.094 0 l 0 -3.125 c 0 -0.454 -0.355 -0.875 -0.75 -0.875 l -18.5 0 z" style="fill:#000;opacity:0.1;fill-opacity:1;stroke:none;fill-rule:nonzero"/>
 <path d="m 14 20 0 -5.132 c 0 -0.453 0.359 -0.868 0.75 -0.868 l 18.5 0 c 0.395 0 0.75 0.413 0.75 0.868 l 0 5.132 m -20 0" style="fill:#b29c9c;fill-opacity:1;stroke:none;fill-rule:nonzero"/>
 <path d="m 12.813 16 c -0.441 0.043 -0.816 0.434 -0.813 0.859 l 0 16.278 c 0 0.453 0.43 0.863 0.902 0.863 l 22.2 0 c 0.469 0 0.898 -0.41 0.898 -0.863 l 0 -14.243 c 0 -0.449 -0.43 -0.894 -0.898 -0.894 l -9.102 0 0 -1.125 c 0 -0.449 -0.457 -0.875 -0.925 -0.875 l -12.176 0 c -0.027 0 -0.059 0 -0.09 0" style="fill:#ecedf1;fill-opacity:1;stroke:none;fill-rule:nonzero"/>
 <path d="m 30 31.98 0 -12 -12 0 0 10.57 1.512 1.449 m 9.488 -1 -2 0 0 -2 -6 0 0 2 -1 0 -1 -1 0 -9 1 0 0 7 8 0 0 -7 1 0 m -5 10 -2 0 0 -1 2 0 m 3 -4 -6 0 0 -1 6 0 m 0 -2 -6 0 0 -1 6 0 m 0 1" style="fill:#b29c9c;fill-opacity:1;stroke:none;fill-rule:nonzero"/>
 <g>
  <path d="m 40.03 7.531 c 3.712 4.084 5.969 9.514 5.969 15.469 0 12.703 -10.297 23 -23 23 c -5.954 0 -11.384 -2.256 -15.469 -5.969 4.178 4.291 10.01 6.969 16.469 6.969 c 12.703 0 23 -10.298 23 -23 0 -6.462 -2.677 -12.291 -6.969 -16.469 z" style="opacity:0.1"/>
 </g>
</svg>
